images/standard.svg

<svg width="40" height="40" viewBox="0 0 40 40" fill="none" xmlns="http://www.w3.org/2000/svg">
<rect width="40" height="40" rx="20" fill="#FFD4EB"/>
<path fill-rule="evenodd" clip-rule="evenodd" d="M14.0042 10.1825C14.9691 10.1054 15.885 9.72592 16.6217 9.09797C17.4537 8.38936 18.5108 8.00018 19.6037 8.00018C20.6965 8.00018 21.7537 8.38936 22.5857 9.09797C23.3223 9.72592 24.2383 10.1054 25.2032 10.1825C26.2928 10.2696 27.3158 10.7419 28.0888 11.5149C28.8617 12.2878 29.3341 13.3108 29.4212 14.4005C29.4977 15.365 29.8772 16.2815 30.5057 17.018C31.2143 17.85 31.6035 18.9071 31.6035 20C31.6035 21.0928 31.2143 22.15 30.5057 22.982C29.8777 23.7186 29.4982 24.6346 29.4212 25.5995C29.3341 26.6891 28.8617 27.7121 28.0888 28.4851C27.3158 29.258 26.2928 29.7304 25.2032 29.8175C24.2383 29.8945 23.3223 30.274 22.5857 30.902C21.7537 31.6106 20.6965 31.9998 19.6037 31.9998C18.5108 31.9998 17.4537 31.6106 16.6217 30.902C15.885 30.274 14.9691 29.8945 14.0042 29.8175C12.9145 29.7304 11.8915 29.258 11.1186 28.4851C10.3456 27.7121 9.87326 26.6891 9.78617 25.5995C9.70913 24.6346 9.32962 23.7186 8.70167 22.982C7.99306 22.15 7.60388 21.0928 7.60388 20C7.60388 18.9071 7.99306 17.85 8.70167 17.018C9.32962 16.2813 9.70913 15.3654 9.78617 14.4005C9.87326 13.3108 10.3456 12.2878 11.1186 11.5149C11.8915 10.7419 12.9145 10.2696 14.0042 10.1825ZM25.1642 18.0605C25.4374 17.7776 25.5886 17.3987 25.5852 17.0054C25.5818 16.6121 25.424 16.2359 25.1459 15.9577C24.8678 15.6796 24.4916 15.5219 24.0983 15.5185C23.705 15.515 23.3261 15.6662 23.0432 15.9395L18.1037 20.879L16.1642 18.9395C15.8813 18.6662 15.5024 18.515 15.1091 18.5185C14.7158 18.5219 14.3396 18.6796 14.0614 18.9577C13.7833 19.2359 13.6256 19.6121 13.6222 20.0054C13.6187 20.3987 13.7699 20.7776 14.0432 21.0605L17.0432 24.0605C17.3245 24.3417 17.7059 24.4997 18.1037 24.4997C18.5014 24.4997 18.8829 24.3417 19.1642 24.0605L25.1642 18.0605Z" fill="#E3007A"/>
</svg>

<svg xmlns="http://www.w3.org/2000/svg" width="40" height="40" fill="none" viewBox="0 0 40 40"><rect width="40" height="40" fill="#FFD4EB" rx="20"/><path fill="#E3007A" fill-rule="evenodd" d="M14.004 10.183a4.6 4.6 0 0 0 2.618-1.085 4.6 4.6 0 0 1 5.964 0 4.6 4.6 0 0 0 2.617 1.084 4.6 4.6 0 0 1 4.218 4.218 4.6 4.6 0 0 0 1.085 2.618 4.6 4.6 0 0 1 0 5.964 4.6 4.6 0 0 0-1.085 2.617 4.6 4.6 0 0 1-4.218 4.218 4.6 4.6 0 0 0-2.617 1.085 4.6 4.6 0 0 1-5.964 0 4.6 4.6 0 0 0-2.618-1.085A4.6 4.6 0 0 1 9.786 25.6a4.6 4.6 0 0 0-1.084-2.617 4.6 4.6 0 0 1 0-5.964A4.6 4.6 0 0 0 9.786 14.4a4.6 4.6 0 0 1 4.218-4.218m11.16 7.878a1.5 1.5 0 0 0-2.12-2.121l-4.94 4.939-1.94-1.94a1.5 1.5 0 0 0-2.12 2.122l3 3a1.5 1.5 0 0 0 2.12 0z" clip-rule="evenodd"/></svg>
